svg/u1f3ae.svg

<svg viewBox="0 0 128 128" xmlns="http://www.w3.org/2000/svg">
  <path d="m88.79 4c0.01 0 0.07 0.68 0.23 1.05 4.69 11.11-13.5 14.47-19.76 19.03-9.4 6.84-9.6 16.87-8.99 24.52 0.3 3.82 6.3 3.86 6 0-0.41-5.22 1.18-15.28 5.27-18.74 4.05-3.43 9.48-4.75 14.07-7.26 6.66-3.66 12.28-10.6 9.4-18.6h-6.22z" fill="#424242"/>
  <linearGradient id="a" gradientUnits="userSpaceOnUse" x1="64.405" x2="64.405" y1="36.308" y2="116.17">
    <stop offset=".2493" stop-color="#757575"/>
    <stop offset=".8025" stop-color="#424242"/>
  </linearGradient>
  <path d="m119.88 55.77c-3.35-12.93-21.94-19.53-34.62-13.31-8.37 4.11-11.85 5.69-21.18 5.69s-12.68-1.48-21-5.48c-12.76-6.13-31.33 0.6-34.53 13.58-3.68 14.9-4.29 34.05-4.29 51.81 0 15.92 16.77 21.75 28.12 8.47 7.09-8.3 19.72-11.67 31.3-11.67s25.12 3.13 32.5 11.67c11.47 13.28 28.39 7.45 28.39-8.47-0.01-18.07-0.82-37.37-4.69-52.29z" fill="url(#a)"/>
  <circle cx="48.08" cy="92.92" fill="#424242" r="11.83"/>
  <circle cx="48.08" cy="92.92" fill="#757575" r="9.08"/>
  <circle cx="80.08" cy="92.92" fill="#424242" r="11.83"/>
  <circle cx="80.08" cy="92.92" fill="#757575" r="9.08"/>
  <g opacity=".2">
    <path d="m95.96 43.09c10 0 19.03 5.77 21.02 13.43 4.11 15.85 4.58 37.01 4.58 51.55 0 7.55-4.57 12.83-11.11 12.83-4.23 0-8.49-2.24-12.01-6.32-3.3-3.82-13.3-12.71-34.77-12.71-14.43 0-26.67 4.64-33.58 12.72-3.47 4.07-7.69 6.31-11.86 6.31-6.47 0-10.98-5.28-10.98-12.83 0-16.84 0.5-36.09 4.2-51.09 1.91-7.75 10.97-13.59 21.07-13.59 3.34 0 6.53 0.69 9.25 2 8.54 4.11 12.4 5.77 22.3 5.77 9.87 0 13.8-1.73 22.5-6 2.76-1.35 6-2.07 9.39-2.07m0-3c-3.72 0-7.41 0.75-10.7 2.37-8.37 4.11-11.85 5.69-21.18 5.69s-12.68-1.48-21-5.48c-3.26-1.56-6.89-2.29-10.55-2.29-10.69 0-21.6 6.2-23.98 15.87-3.68 14.9-4.29 34.05-4.29 51.81 0 9.84 6.41 15.83 13.98 15.83 4.68 0 9.8-2.29 14.14-7.36 7.09-8.3 19.72-11.67 31.3-11.67s25.12 3.13 32.5 11.67c4.38 5.07 9.56 7.36 14.28 7.36 7.65 0 14.11-5.99 14.11-15.83 0-18.08-0.81-37.37-4.68-52.3-2.49-9.56-13.32-15.67-23.93-15.67z" fill="#424242"/>
  </g>
  <circle cx="31.75" cy="65.25" fill="#757575" r="20"/>
  <circle cx="31.75" cy="65.25" fill="#424242" r="16"/>
  <g opacity=".2">
    <path d="m31.75 51.25c7.72 0 14 6.28 14 14s-6.28 14-14 14-14-6.28-14-14 6.28-14 14-14m0-2c-8.84 0-16 7.16-16 16s7.16 16 16 16 16-7.16 16-16-7.16-16-16-16z" fill="#eee"/>
  </g>
  <path d="m41.51 61h-5.51v-5.49c0-2.51-1.99-4.57-4.5-4.57s-4.5 2.06-4.5 4.57v5.49h-5.02c-2.51 0-4.57 1.99-4.57 4.5s2.06 4.5 4.57 4.5h5.02v5.04c0 2.51 1.99 4.57 4.5 4.57s4.5-2.06 4.5-4.57v-5.04h5.51c2.51 0 4.57-1.99 4.57-4.5s-2.06-4.5-4.57-4.5z" fill="#9E9E9E"/>
  <g opacity=".2">
    <path d="m31.5 51.94c1.98 0 3.5 1.64 3.5 3.57v5.35c0 0.55 0.58 1.14 1.14 1.14h5.37c1.94 0 3.57 1.52 3.57 3.5s-1.64 3.5-3.57 3.5h-5.37c-0.56 0-1.14 0.6-1.14 1.15v4.89c0 1.94-1.52 3.57-3.5 3.57s-3.5-1.64-3.5-3.57v-4.89c0-0.55-0.6-1.15-1.15-1.15h-4.87c-1.94 0-3.57-1.52-3.57-3.5s1.64-3.5 3.57-3.5h4.87c0.55 0 1.15-0.58 1.15-1.14v-5.35c0-1.93 1.52-3.57 3.5-3.57m0-1c-2.51 0-4.5 2.06-4.5 4.57v5.49h-5.02c-2.51 0-4.57 1.99-4.57 4.5s2.06 4.5 4.57 4.5h5.02v5.04c0 2.51 1.99 4.57 4.5 4.57s4.5-2.06 4.5-4.57v-5.04h5.51c2.51 0 4.57-1.99 4.57-4.5s-2.06-4.5-4.57-4.5h-5.51v-5.49c0-2.51-1.99-4.57-4.5-4.57z" fill="#424242"/>
  </g>
  <circle cx="97.28" cy="53.44" fill="#FFD54F" r="6"/>
  <circle cx="97.28" cy="78.81" fill="#4CAF50" r="6"/>
  <circle cx="85.09" cy="66.12" fill="#2196F3" r="6"/>
  <circle cx="109.47" cy="66.12" fill="#F44336" r="6"/>
  <g fill="#424242" opacity=".2">
    <path d="m97.28 49.44c2.21 0 4 1.79 4 4s-1.79 4-4 4-4-1.79-4-4 1.8-4 4-4m0-2c-3.31 0-6 2.69-6 6s2.69 6 6 6 6-2.69 6-6-2.69-6-6-6z"/>
    <path d="m97.28 74.81c2.21 0 4 1.79 4 4s-1.79 4-4 4-4-1.79-4-4 1.8-4 4-4m0-2c-3.31 0-6 2.69-6 6s2.69 6 6 6 6-2.69 6-6-2.69-6-6-6z"/>
    <path d="m85.09 62.12c2.21 0 4 1.79 4 4s-1.79 4-4 4-4-1.79-4-4 1.8-4 4-4m0-2c-3.31 0-6 2.69-6 6s2.69 6 6 6 6-2.69 6-6-2.68-6-6-6z"/>
    <path d="m109.47 62.12c2.21 0 4 1.79 4 4s-1.79 4-4 4-4-1.79-4-4 1.79-4 4-4m0-2c-3.31 0-6 2.69-6 6s2.69 6 6 6 6-2.69 6-6-2.69-6-6-6z"/>
  </g>
  <g opacity=".2">
    <path d="m48.08 85.83c3.91 0 7.08 3.18 7.08 7.08 0 3.91-3.18 7.08-7.08 7.08-3.91 0-7.08-3.18-7.08-7.08s3.18-7.08 7.08-7.08m0-2c-5.02 0-9.08 4.07-9.08 9.08 0 5.02 4.07 9.08 9.08 9.08 5.02 0 9.08-4.07 9.08-9.08 0.01-5.01-4.06-9.08-9.08-9.08z" fill="#424242"/>
  </g>
  <g opacity=".2">
    <path d="m80.08 85.83c3.91 0 7.08 3.18 7.08 7.08 0 3.91-3.18 7.08-7.08 7.08s-7.08-3.17-7.08-7.07c0-3.91 3.18-7.09 7.08-7.09m0-2c-5.02 0-9.08 4.07-9.08 9.08 0 5.02 4.07 9.08 9.08 9.08s9.08-4.07 9.08-9.08c0.01-5.01-4.06-9.08-9.08-9.08z" fill="#424242"/>
  </g>
</svg>

<svg style="enable-background:new 0 0 128 128;" viewBox="0 0 128 128" xmlns="http://www.w3.org/2000/svg" xmlns:xlink="http://www.w3.org/1999/xlink">
  <path d="M88.79,4c0.01,0,0.07,0.68,0.23,1.05c4.69,11.11-13.5,14.47-19.76,19.03 c-9.4,6.84-9.6,16.87-8.99,24.52c0.3,3.82,6.3,3.86,6,0c-0.41-5.22,1.18-15.28,5.27-18.74c4.05-3.43,9.48-4.75,14.07-7.26 C92.27,18.94,97.89,12,95.01,4L88.79,4z" style="fill:#504F4F;"/>
  <linearGradient id="SVGID_1_" gradientTransform="matrix(1 0 0 -1 0 127.8898)" gradientUnits="userSpaceOnUse" x1="64.415" x2="64.415" y1="91.5818" y2="11.7198">
    <stop offset="0.2493" style="stop-color:#757575"/>
    <stop offset="0.8025" style="stop-color:#444444"/>
  </linearGradient>
  <path d="M119.88,55.77c-3.35-12.93-21.94-19.53-34.62-13.31c-8.37,4.11-11.85,5.69-21.18,5.69 s-12.68-1.48-21-5.48c-12.76-6.13-31.33,0.6-34.53,13.58c-3.68,14.9-4.29,34.05-4.29,51.81c0,15.92,16.77,21.75,28.12,8.47 c7.09-8.3,19.72-11.67,31.3-11.67s25.12,3.13,32.5,11.67c11.47,13.28,28.39,7.45,28.39-8.47C124.56,89.99,123.75,70.69,119.88,55.77 z" style="fill:url(#SVGID_1_);"/>
  <circle cx="48.08" cy="92.92" r="11.83" style="fill:#424242;"/>
  <circle cx="48.08" cy="92.92" r="9.08" style="fill:#757575;"/>
  <circle cx="80.08" cy="92.92" r="11.83" style="fill:#424242;"/>
  <circle cx="80.08" cy="92.92" r="9.08" style="fill:#757575;"/>
  <circle cx="31.75" cy="65.25" r="20" style="fill:#757575;"/>
  <circle cx="31.75" cy="65.25" r="16" style="fill:#424242;"/>
  <g style="opacity:0.2;">
    <path d="M31.75,51.25c7.72,0,14,6.28,14,14s-6.28,14-14,14s-14-6.28-14-14S24.03,51.25,31.75,51.25 M31.75,49.25c-8.84,0-16,7.16-16,16s7.16,16,16,16s16-7.16,16-16S40.59,49.25,31.75,49.25z" style="fill:#EEEEEE;"/>
  </g>
  <path d="M41.51,61H36v-5.49c0-2.51-1.99-4.57-4.5-4.57S27,53,27,55.51V61h-5.02c-2.51,0-4.57,1.99-4.57,4.5 c0,2.51,2.06,4.5,4.57,4.5H27v5.04c0,2.51,1.99,4.57,4.5,4.57s4.5-2.06,4.5-4.57V70h5.51c2.51,0,4.57-1.99,4.57-4.5 S44.02,61,41.51,61z" style="fill:#9E9E9E;"/>
  <g style="opacity:0.2;">
    <path d="M31.5,51.94c1.98,0,3.5,1.64,3.5,3.57v5.35c0,0.55,0.58,1.14,1.14,1.14h5.37 c1.94,0,3.57,1.52,3.57,3.5S43.44,69,41.51,69h-5.37C35.58,69,35,69.6,35,70.15v4.89c0,1.94-1.52,3.57-3.5,3.57S28,76.97,28,75.04 v-4.89C28,69.6,27.4,69,26.85,69h-4.87c-1.94,0-3.57-1.52-3.57-3.5s1.64-3.5,3.57-3.5h4.87C27.4,62,28,61.42,28,60.86v-5.35 C28,53.58,29.52,51.94,31.5,51.94 M31.5,50.94c-2.51,0-4.5,2.06-4.5,4.57V61h-5.02c-2.51,0-4.57,1.99-4.57,4.5 c0,2.51,2.06,4.5,4.57,4.5H27v5.04c0,2.51,1.99,4.57,4.5,4.57s4.5-2.06,4.5-4.57V70h5.51c2.51,0,4.57-1.99,4.57-4.5 S44.02,61,41.51,61H36v-5.49C36,53,34.01,50.94,31.5,50.94z" style="fill:#424242;"/>
  </g>
  <circle cx="97.28" cy="53.44" r="6" style="fill:#FFD54F;"/>
  <circle cx="97.28" cy="78.81" r="6" style="fill:#4CAF50;"/>
  <circle cx="85.09" cy="66.12" r="6" style="fill:#2196F3;"/>
  <circle cx="109.47" cy="66.12" r="6" style="fill:#F44336;"/>
  <g style="opacity:0.2;">
    <path d="M97.28,49.44c2.21,0,4,1.79,4,4s-1.79,4-4,4s-4-1.79-4-4S95.08,49.44,97.28,49.44 M97.28,47.44 c-3.31,0-6,2.69-6,6s2.69,6,6,6s6-2.69,6-6S100.59,47.44,97.28,47.44z" style="fill:#424242;"/>
    <path d="M97.28,74.81c2.21,0,4,1.79,4,4s-1.79,4-4,4s-4-1.79-4-4S95.08,74.81,97.28,74.81 M97.28,72.81 c-3.31,0-6,2.69-6,6s2.69,6,6,6s6-2.69,6-6S100.59,72.81,97.28,72.81z" style="fill:#424242;"/>
    <path d="M85.09,62.12c2.21,0,4,1.79,4,4c0,2.21-1.79,4-4,4s-4-1.79-4-4S82.89,62.12,85.09,62.12 M85.09,60.12c-3.31,0-6,2.69-6,6c0,3.31,2.69,6,6,6s6-2.69,6-6S88.41,60.12,85.09,60.12z" style="fill:#424242;"/>
    <path d="M109.47,62.12c2.21,0,4,1.79,4,4c0,2.21-1.79,4-4,4s-4-1.79-4-4S107.26,62.12,109.47,62.12 M109.47,60.12c-3.31,0-6,2.69-6,6c0,3.31,2.69,6,6,6s6-2.69,6-6S112.78,60.12,109.47,60.12z" style="fill:#424242;"/>
  </g>
  <g style="opacity:0.2;">
    <path d="M48.08,85.83c3.91,0,7.08,3.18,7.08,7.08c0,3.91-3.18,7.08-7.08,7.08c-3.91,0-7.08-3.18-7.08-7.08 S44.18,85.83,48.08,85.83 M48.08,83.83c-5.02,0-9.08,4.07-9.08,9.08c0,5.02,4.07,9.08,9.08,9.08c5.02,0,9.08-4.07,9.08-9.08 C57.17,87.9,53.1,83.83,48.08,83.83z" style="fill:#424242;"/>
  </g>
  <g style="opacity:0.2;">
    <path d="M80.08,85.83c3.91,0,7.08,3.18,7.08,7.08c0,3.91-3.18,7.08-7.08,7.08S73,96.82,73,92.92 C73,89.01,76.18,85.83,80.08,85.83 M80.08,83.83c-5.02,0-9.08,4.07-9.08,9.08c0,5.02,4.07,9.08,9.08,9.08s9.08-4.07,9.08-9.08 C89.17,87.9,85.1,83.83,80.08,83.83z" style="fill:#424242;"/>
  </g>
</svg>
